Sources/FrostedUI/Resources/Icons.xcassets/rocket24.imageset/rocket-24.svg

<svg width="24" height="24" viewBox="0 0 24 24" fill="none" xmlns="http://www.w3.org/2000/svg" data-fui-icon="true">
  <path
    d="M6.21191 19.0122C6.50057 18.7156 6.97553 18.7092 7.27246 18.9976C7.56933 19.2862 7.57647 19.7611 7.28809 20.0581L5.62109 21.772C5.33241 22.0689 4.85755 22.0762 4.56055 21.7876C4.26376 21.4988 4.25724 21.024 4.5459 20.7271L6.21191 19.0122ZM3.99023 16.7271C4.27891 16.4304 4.75385 16.423 5.05078 16.7114C5.34765 17 5.35381 17.475 5.06543 17.772L2.28809 20.6294C1.99935 20.9264 1.52453 20.9328 1.22754 20.644C0.930777 20.3553 0.923253 19.8804 1.21191 19.5835L3.99023 16.7271ZM20.1904 2.04053C21.2006 1.96068 22.0375 2.79799 21.958 3.80811C21.6602 7.57429 19.7748 10.4855 16.999 13.0942V17.1558C16.999 17.7961 16.6497 18.3852 16.0879 18.6919L12.5879 20.6011C11.4219 21.2368 9.99902 20.3933 9.99902 19.0649V17.4487L6.5498 13.9995H4.93359C3.60576 13.9989 2.76168 12.5775 3.39746 11.4116L5.30664 7.91162C5.61318 7.34972 6.20273 6.9998 6.84277 6.99951H10.9053C13.5137 4.22423 16.4248 2.33842 20.1904 2.04053ZM11.499 17.5005V19.0649C11.499 19.2544 11.7025 19.3752 11.8691 19.2847L15.3691 17.3755L15.4238 17.3354C15.4716 17.289 15.499 17.2242 15.499 17.1558V14.3237L11.499 17.5005ZM20.3086 3.53662C16.9543 3.80203 14.3135 5.49931 11.8018 8.23291L7.86328 13.1919L10.8066 16.1343L15.7588 12.2017C18.4962 9.68797 20.1975 7.04714 20.4629 3.68994C20.4697 3.59941 20.3992 3.52946 20.3086 3.53662ZM6.84277 8.49951C6.75165 8.4998 6.66772 8.55037 6.62402 8.63037L4.71484 12.1294C4.62408 12.2958 4.74439 12.4989 4.93359 12.4995H6.49805L9.6748 8.49951H6.84277ZM16.2422 6.02393C17.1742 6.02394 17.9297 6.77945 17.9297 7.71143C17.9294 8.64319 17.174 9.39891 16.2422 9.39893C15.3104 9.39893 14.5549 8.6432 14.5547 7.71143C14.5547 6.77945 15.3102 6.02393 16.2422 6.02393Z"
    fill="currentColor"
  />
</svg>

<svg xmlns="http://www.w3.org/2000/svg" width="24" height="24" fill="none" data-fui-icon="true" viewBox="0 0 24 24"><path fill="currentColor" d="M6.212 19.012a.75.75 0 0 1 1.076 1.046l-1.667 1.714a.75.75 0 1 1-1.075-1.045zM3.99 16.727a.75.75 0 0 1 1.075 1.045l-2.777 2.857a.75.75 0 0 1-1.076-1.046zm16.2-14.686a1.64 1.64 0 0 1 1.768 1.767c-.298 3.766-2.183 6.678-4.959 9.286v4.062c0 .64-.35 1.23-.911 1.536l-3.5 1.91c-1.166.635-2.589-.209-2.589-1.537v-1.616l-3.45-3.45H4.935a1.75 1.75 0 0 1-1.537-2.587l1.91-3.5A1.75 1.75 0 0 1 6.843 7h4.062c2.609-2.776 5.52-4.662 9.285-4.96M11.5 17.5v1.564c0 .19.204.31.37.22l3.5-1.91.055-.04a.25.25 0 0 0 .075-.18v-2.831zm8.81-13.964c-3.355.265-5.996 1.962-8.507 4.696l-3.939 4.959 2.944 2.942 4.952-3.932c2.737-2.514 4.439-5.155 4.704-8.512a.14.14 0 0 0-.154-.153M6.843 8.5a.25.25 0 0 0-.219.13l-1.91 3.5a.25.25 0 0 0 .22.37h1.564l3.177-4zm9.4-2.476a1.687 1.687 0 1 1 0 3.375 1.687 1.687 0 0 1 0-3.375"/></svg>
